icons/op-move-16.svg

<svg width="16" height="16" viewBox="0 0 16 16" fill="none" xmlns="http://www.w3.org/2000/svg">
<path d="M3.91585 8.6935C3.6555 8.42461 3.23339 8.42461 2.97304 8.6935C2.7127 8.96239 2.7127 9.39827 2.97304 9.66717L3.83497 10.5574L2.55556 10.5574C2.43283 10.5574 2.33333 10.4546 2.33333 10.3279L2.33333 4.60656C2.33333 4.4798 2.43283 4.37705 2.55556 4.37705L5.33333 4.37705C5.70152 4.37705 6 4.06879 6 3.68852C6 3.30826 5.70152 3 5.33333 3L2.55556 3C1.69645 3 1 3.71928 1 4.60656L1 10.3279C1 11.2151 1.69645 11.9344 2.55556 11.9344L3.83497 11.9344L2.97304 12.8246C2.7127 13.0935 2.7127 13.5295 2.97304 13.7983C3.23339 14.0672 3.6555 14.0672 3.91585 13.7983L5.91585 11.7328C6.1762 11.4639 6.1762 11.0279 5.91585 10.759L3.91585 8.6935Z" fill="#24292F"/>
<path fill-rule="evenodd" clip-rule="evenodd" d="M8.55556 14.082C7.69644 14.082 7 13.3627 7 12.4754L7 10.0164C7 9.12912 7.69645 8.40984 8.55556 8.40984L13.4444 8.40984C14.3036 8.40984 15 9.12912 15 10.0164L15 12.4754C15 13.3627 14.3036 14.082 13.4444 14.082L8.55556 14.082ZM8.33333 12.4754C8.33333 12.6022 8.43283 12.7049 8.55556 12.7049L13.4444 12.7049C13.5672 12.7049 13.6667 12.6022 13.6667 12.4754L13.6667 10.0164C13.6667 9.88964 13.5672 9.78689 13.4444 9.78689L8.55556 9.78689C8.43283 9.78689 8.33333 9.88964 8.33333 10.0164L8.33333 12.4754Z" fill="#24292F"/>
<path fill-rule="evenodd" clip-rule="evenodd" d="M7.11111 5.06558C7.11111 5.95285 7.80756 6.67213 8.66667 6.67213L13.4444 6.67213C14.3036 6.67213 15 5.95285 15 5.06558L15 2.60656C15 1.71928 14.3036 1 13.4444 1L8.66667 1C7.80756 1 7.11111 1.71928 7.11111 2.60656L7.11111 5.06558ZM8.66667 5.29508C8.54394 5.29508 8.44444 5.19233 8.44444 5.06558L8.44445 2.60656C8.44445 2.47981 8.54394 2.37705 8.66667 2.37705L13.4444 2.37705C13.5672 2.37705 13.6667 2.47981 13.6667 2.60656L13.6667 5.06558C13.6667 5.19233 13.5672 5.29508 13.4444 5.29508L8.66667 5.29508Z" fill="#24292F"/>
</svg>

<svg xmlns="http://www.w3.org/2000/svg" width="16" height="16" viewBox="0 0 16 16"><path d="M3.916 8.694a.652.652 0 0 0-.943 0 .704.704 0 0 0 0 .973l.862.89H2.556a.226.226 0 0 1-.223-.229V4.607c0-.127.1-.23.223-.23h2.777A.677.677 0 0 0 6 3.689.678.678 0 0 0 5.333 3H2.556C1.696 3 1 3.719 1 4.607v5.721c0 .887.696 1.606 1.556 1.606h1.279l-.862.891a.704.704 0 0 0 0 .973c.26.269.682.269.943 0l2-2.065a.706.706 0 0 0 0-.974l-2-2.065Zm4.64 5.388c-.86 0-1.556-.719-1.556-1.607v-2.459c0-.887.696-1.606 1.556-1.606h4.888c.86 0 1.556.719 1.556 1.606v2.459c0 .888-.696 1.607-1.556 1.607Zm-.223-1.607c0 .127.1.23.223.23h4.888a.227.227 0 0 0 .223-.23v-2.459c0-.126-.1-.229-.223-.229H8.556a.226.226 0 0 0-.223.229ZM7.111 5.066V2.607C7.111 1.719 7.808 1 8.667 1h4.777C14.304 1 15 1.719 15 2.607v2.459c0 .887-.696 1.606-1.556 1.606H8.667c-.859 0-1.556-.719-1.556-1.606Zm1.556.229h4.777a.226.226 0 0 0 .223-.229V2.607c0-.127-.1-.23-.223-.23H8.667a.227.227 0 0 0-.223.23v2.459c0 .126.1.229.223.229Z"/></svg>
